packages/icons/svg/Fill/arrow-down.svg

<svg width="24" height="24" viewBox="0 0 24 24" fill="none" xmlns="http://www.w3.org/2000/svg">
<g id="Icon/Fill/arrow-down">
<path id="Mask" fill-rule="evenodd" clip-rule="evenodd" d="M18.7682 13.36C18.4142 12.936 17.7842 12.878 17.3602 13.232L13.0002 16.865V5C13.0002 4.448 12.5522 4 12.0002 4C11.4482 4 11.0002 4.448 11.0002 5V16.865L6.64023 13.232C6.21523 12.878 5.58523 12.936 5.23223 13.36C4.87823 13.784 4.93523 14.415 5.36023 14.768L11.3602 19.768C11.4072 19.808 11.4632 19.827 11.5152 19.857C11.5562 19.881 11.5922 19.909 11.6372 19.927C11.7542 19.973 11.8762 20 12.0002 20C12.1242 20 12.2462 19.973 12.3632 19.927C12.4082 19.909 12.4442 19.881 12.4852 19.857C12.5372 19.827 12.5932 19.808 12.6402 19.768L18.6402 14.768C19.0642 14.415 19.1222 13.784 18.7682 13.36Z" fill="#000000"/>
</g>
</svg>

<svg fill="none" height="24" viewBox="0 0 24 24" width="24" xmlns="http://www.w3.org/2000/svg"><path clip-rule="evenodd" d="m18.7683 13.36c-.354-.424-.984-.482-1.408-.128l-4.36 3.633v-11.865c0-.552-.448-1-1-1s-1 .448-1 1v11.865l-4.36005-3.633c-.425-.354-1.055-.296-1.408.128-.354.424-.297 1.055.128 1.408l6.00005 5c.047.04.103.059.155.089.041.024.077.052.122.07.117.046.239.073.363.073s.246-.027.363-.073c.045-.018.081-.046.122-.07.052-.03.108-.049.155-.089l6-5c.424-.353.482-.984.128-1.408" fill="#6b7280" fill-rule="evenodd"/></svg>
